assets/illustrations/multisize/72/audio.svg

<svg data-name="ICONS" xmlns="http://www.w3.org/2000/svg" viewBox="0 0 72 72"><defs><linearGradient id="a" x1="6.467" y1="7.804" x2="58.639" y2="69.981" gradientUnits="userSpaceOnUse"><stop offset="0" stop-color="#fff" stop-opacity="0"/><stop offset=".862" stop-color="#5e5e5e" stop-opacity=".063"/><stop offset="1" stop-opacity=".1"/></linearGradient><linearGradient id="b" x1="52" y1="24.844" x2="52" y2="20.146" gradientUnits="userSpaceOnUse"><stop offset="0" stop-color="#828282" stop-opacity="0"/><stop offset=".862" stop-color="#303030" stop-opacity=".063"/><stop offset="1" stop-opacity=".1"/></linearGradient><linearGradient id="c" x1="48.792" y1="23.208" x2="57.501" y2="14.499" gradientUnits="userSpaceOnUse"><stop offset="0" stop-color="#fff" stop-opacity="0"/><stop offset=".446" stop-color="#fff" stop-opacity=".008"/><stop offset=".636" stop-color="#fff" stop-opacity=".036"/><stop offset=".776" stop-color="#fff" stop-opacity=".085"/><stop offset=".892" stop-color="#fff" stop-opacity=".154"/><stop offset=".993" stop-color="#fff" stop-opacity=".243"/><stop offset="1" stop-color="#fff" stop-opacity=".25"/></linearGradient></defs><path fill="#fff" d="M60 67H12V5h34l14 14v48z"/><path d="M47 4H11v64h50V18zm0 3l11 11H47zm12 59H13V6h32v14h14z" fill="#949494"/><path d="M50.944 31.81C48.293 25.408 38.304 22.33 38 20v-1a1 1 0 0 0-2 0v29.618a10.912 10.912 0 0 0-8.05-1.417c-4.937.847-8.468 4.13-7.887 7.333.58 3.203 5.052 5.112 9.988 4.265C34.713 58 38 55 37.992 52L38 29c2.335.002 5.573.88 8.687 4.601 6.085 7.274-1.118 13.316-1.118 13.668a.418.418 0 0 0 .222.651.931.931 0 0 0 .96-.124c7.247-6.481 5.204-13.543 4.193-15.985z" fill="#69afe5"/><path d="M61 18L47 4H11v64h50z" fill="url(#a)"/><path fill="url(#b)" d="M45 20h14v5H45z"/><path fill="url(#c)" d="M61 18L47 4H11v2h34v14h14v48h2V18z"/></svg>

<svg id="ICONS" xmlns="http://www.w3.org/2000/svg" xmlns:xlink="http://www.w3.org/1999/xlink" viewBox="0 0 72 72"><defs><style>.cls-1{fill:#fff;}.cls-2{fill:#a6a6a6;}.cls-3{fill:#69afe5;}.cls-4{fill:url(#linear-gradient);}.cls-5{fill:url(#linear-gradient-2);}.cls-6{fill:url(#linear-gradient-3);}</style><linearGradient id="linear-gradient" x1="6.47" y1="7.8" x2="58.64" y2="69.98" gradientUnits="userSpaceOnUse"><stop offset="0" stop-color="#fff" stop-opacity="0"/><stop offset="0.86" stop-color="#5e5e5e" stop-opacity="0.06"/><stop offset="1" stop-opacity="0.1"/></linearGradient><linearGradient id="linear-gradient-2" x1="52" y1="24.84" x2="52" y2="20.15" gradientUnits="userSpaceOnUse"><stop offset="0" stop-color="#828282" stop-opacity="0"/><stop offset="0.86" stop-color="#303030" stop-opacity="0.06"/><stop offset="1" stop-opacity="0.1"/></linearGradient><linearGradient id="linear-gradient-3" x1="48.79" y1="23.21" x2="57.5" y2="14.5" gradientUnits="userSpaceOnUse"><stop offset="0" stop-color="#fff" stop-opacity="0"/><stop offset="0.45" stop-color="#fff" stop-opacity="0.01"/><stop offset="0.64" stop-color="#fff" stop-opacity="0.04"/><stop offset="0.78" stop-color="#fff" stop-opacity="0.08"/><stop offset="0.89" stop-color="#fff" stop-opacity="0.15"/><stop offset="0.99" stop-color="#fff" stop-opacity="0.24"/><stop offset="1" stop-color="#fff" stop-opacity="0.25"/></linearGradient></defs><title>Artboard 231</title><polygon class="cls-1" points="60 67 12 67 12 5 46 5 60 19 60 67"/><path class="cls-2" d="M47,4H11V68H61V18Zm0,3L58,18H47ZM59,66H13V6H45V20H59Z"/><path class="cls-3" d="M50.94,31.81C48.29,25.41,38.3,22.33,38,20V19a1,1,0,0,0-2,0V48.62a10.91,10.91,0,0,0-8.05-1.42c-4.94.85-8.47,4.13-7.89,7.33s5.05,5.11,10,4.27C34.71,58,38,55,38,52V29c2.33,0,5.57.88,8.69,4.6,6.09,7.27-1.12,13.32-1.12,13.67a.42.42,0,0,0,.22.65.93.93,0,0,0,1-.12C54,41.31,52,34.25,50.94,31.81Z"/><path class="cls-4" d="M61,18,47,4H11V68H61Z"/><rect class="cls-5" x="45" y="20" width="14" height="5"/><polygon class="cls-6" points="61 18 47 4 11 4 11 6 45 6 45 20 59 20 59 68 61 68 61 18"/></svg>
